X:13158
T:Pipe on the Hob
R:Jig
M:6/8
L:1/8
K:Ador
AB|:c3 edc|edc BAG|~A3 ~g3|eaa ged|
c3 edc|ed^c deg|age dBe|1 ~A3 A2B:|2 ~A3 Aef|
|:~g3 geg|age dBe|~A3 ~g3|eaa gef|
g3 geg|age deg|age dBe|1 ~A3 A2f:|2 ~A3 A2B|
|:c3 dcd|ecA AGE|c3 dcd|ecA A2B|
cBc dcd|ede gab|age dBe|~A3 A2z:|
